X:1
T:Banyuwangi, 76.76.86.86
T:Banyuwangi, 76.76.86.86
T:Daniel Edward Lorenz, 1895
T:Public Domain Courtesy of the Cyber Hymnal™
C:Daniel Edward Lorenz, 1895
Z:Public Domain
Z:Courtesy of the Cyber Hymnal™
%%score ( 1 2 ) ( 3 4 )
L:1/8
Q:1/4=107
M:6/8
K:Eb
V:1 treble 
V:2 treble 
V:3 bass 
V:4 bass 
V:1
 [EG]2 [FA] [GB]2 [EG] | [Ge]2 [Ac] [GB]2 z | [GB][Ac][GB] [GB]2 [EG] | [DF]3- [DF]2 z | %4
 [EG]2 [FA] [GB]2 [EG] | [Ge]2 [Ac] [GB]2 z | [Ac][Ac][FA] [EG]2 [DF] | [B,E]3- [B,E]2 z | %8
 [Ec]2 [Ec] [Ae]2 [Ac] | [GB]2 [GB] [Ge]2 [GB] | [FA][FA][Ac] [GB]2 [FA] | [EG]3- [EG]2 z | %12
 [Ec]2 [Ec] [Ae]2 [Ac] | [GB]2 [Ge] [Ac]2 [FA] | [EG]E[EA] [EG]2 [DF] | [B,E]3- [B,E]2 |] %16
V:2
 x6 | x6 | x6 | x6 | x6 | x6 | x6 | x6 | x6 | x6 | x6 | x6 | x6 | x6 | x E x4 | x5 |] %16
V:3
 [E,B,]2 [E,B,] [E,E]2 [E,B,] | [E,B,]2 [E,E] [E,E]2 z | [E,E][E,E][E,E] [E,B,]2 [E,B,] | %3
 [B,,B,]3- [B,,B,]2 z | [E,B,]2 [E,B,] [E,E]2 [E,B,] | [E,B,]2 [E,E] [E,E]2 z | %6
 [A,E][A,E][A,C] B,2 [B,,A,] | [E,G,]3- [E,G,]2 z | A,2 A, [A,C]2 [A,E] | %9
 [E,E]2 [E,E] [E,B,]2 [E,E] | [B,D][B,D]B, B,2 B, | [E,B,]3- [E,B,]2 z | A,2 A, [A,C]2 [A,E] | %13
 [E,E]2 [E,E] [A,,E]2 [A,,C] | [B,,B,][B,,G,][B,,C] [B,,B,]2 [B,,A,] | [E,G,]3- [E,G,]2 |] %16
V:4
 x6 | x6 | x6 | x6 | x6 | x6 | x3 B,2 x | x6 | A,2 A, x3 | x6 | x2 B, B,2 B, | x6 | A,2 A, x3 | %13
 x6 | x6 | x5 |] %16

